X:208
T:Girl with the Blue Dress On
M:4/4
L:1/8
K:G
P:A
  Bc |: d2Bd c2Ac | B2G2 G3B | A2F2 FDFG | A2G2 GABc |
      | d2Bd c2Ac | B2G2 GFGB | A2F2 FDFG |1 A2G2 G2 Bc :|2 A2G2 G2D2 |
P:B
   |: G2Bd g3g | f2e2 e4 | DFAd  f3f | e2d2 dcBA |
   | G2Bd g3g | f2e2 a3g | f2a2 e2f2 | gfga g4 :|
